X:18807
T:Willott's Hornpipe
M:2/4
L:1/16
K:A
ED|CEAc efec|defd B2ed|cdec AcBA|GABG E2ED|!
CEAc efec|defd B2ed|ceAc BAGB|A2c2 A2:|!
|:cd|ecae c'aea|fefg agfe|fedc dcBA|GABc B2cd|!
ecae c'aea|fefg agfe|eagf ecdB|A2c2 A2:|!


